Newaita-dark/apps/32/com.github.cassidyjames.clairvoyant.svg

<svg height="32" viewBox="0 0 32 32" width="32" xmlns="http://www.w3.org/2000/svg" xmlns:xlink="http://www.w3.org/1999/xlink"><linearGradient id="a"><stop offset="0" stop-opacity=".313726"/><stop offset=".222222" stop-opacity=".27451"/><stop offset="1" stop-opacity="0"/></linearGradient><radialGradient id="b" cx="450.908936" cy="189.579361" gradientTransform="matrix(.00000017 -.0781325 -.140638 -.0000001 44.523152 63.595329)" gradientUnits="userSpaceOnUse" r="21.166656" xlink:href="#a"/><radialGradient id="c" cx="450.908936" cy="189.579361" gradientTransform="matrix(-.00000017 .0781325 .140638 .0000001 -12.770119 -7.527482)" gradientUnits="userSpaceOnUse" r="21.166656" xlink:href="#a"/><radialGradient id="d" cx="450.908936" cy="189.579361" gradientTransform="matrix(-.00000017 -.0781325 .140638 -.0000001 -12.770119 63.595329)" gradientUnits="userSpaceOnUse" r="21.166656" xlink:href="#a"/><radialGradient id="e" cx="450.908936" cy="189.579361" gradientTransform="matrix(.00000017 .0781325 -.140638 .0000001 44.52315 -7.527483)" gradientUnits="userSpaceOnUse" r="21.166656" xlink:href="#a"/><linearGradient id="f" gradientTransform="matrix(.0133601 0 0 .062506 12.465386 13.438784)" gradientUnits="userSpaceOnUse" x1="255.323059" x2="255.323044" y1="233.5" y2="254.666656"><stop offset="0" stop-opacity=".27451"/><stop offset="1" stop-opacity="0"/></linearGradient><linearGradient id="g" gradientUnits="userSpaceOnUse" x1="15.876524" x2="15.876524" y1="2.89610399997" y2="28.033934"><stop offset="0" stop-color="#90a4ae"/><stop offset="1" stop-color="#546e7a"/></linearGradient><linearGradient id="h" gradientTransform="matrix(.062506 0 0 -.062506 0 13.438783)" gradientUnits="userSpaceOnUse" x1="254" x2="254" y1="-170" y2="105.166656"><stop offset="0" stop-color="#bdbdbd"/><stop offset="1" stop-color="#e0e0e0"/></linearGradient><linearGradient id="i" gradientUnits="userSpaceOnUse" x1="15.87648" x2="15.87648" y1="6.86522318741" y2="24.06474419623"><stop offset="0" stop-color="#616161"/><stop offset="1" stop-color="#424242"/></linearGradient><path d="m18.191406 28.035156h2.648438v-1.324218h-2.648438zm0 0" fill="url(#b)"/><path d="m13.5625 28.035156h-2.648438v1.320313h2.648438zm0 0" fill="url(#c)"/><path d="m13.5625 28.035156h-2.648438v-1.324218h2.648438zm0 0" fill="url(#d)"/><path d="m18.191406 28.035156h2.648438v1.320313h-2.648438zm0 0" fill="url(#e)"/><path d="m13.5625 27.703125h4.628906v1.652344h-4.628906zm0 0" fill="url(#f)"/><path d="m15.875 2.894531c6.941406 0 12.570312 5.628907 12.570312 12.570313s-5.628906 12.570312-12.570312 12.570312-12.566406-5.628906-12.566406-12.570312 5.625-12.570313 12.566406-12.570313zm0 0" fill="url(#g)"/><path d="m15.875 28.035156c-6.960938 0-12.566406-5.605468-12.566406-12.570312 0-.039063 0-.082032 0-.121094.066406 6.902344 5.644531 12.445312 12.566406 12.445312s12.503906-5.542968 12.570312-12.445312v.121094c0 6.964844-5.605468 12.570312-12.570312 12.570312zm0 0" fill-opacity=".196078"/><path d="m15.875 2.894531c-6.960938 0-12.566406 5.605469-12.566406 12.570313v.125c.066406-6.90625 5.644531-12.449219 12.566406-12.449219s12.503906 5.542969 12.570312 12.449219c0-.042969 0-.082032 0-.125 0-6.964844-5.605468-12.570313-12.570312-12.570313zm0 0" fill="#fff" fill-opacity=".392157"/><path d="m15.875 2.800781c-7.011719 0-12.660156 5.652344-12.660156 12.664063 0 7.011718 5.648437 12.664062 12.660156 12.664062 7.015625 0 12.664062-5.652344 12.664062-12.664062 0-7.011719-5.648437-12.664063-12.664062-12.664063zm0 .1875c6.914062 0 12.476562 5.5625 12.476562 12.476563 0 6.914062-5.5625 12.476562-12.476562 12.476562-6.910156 0-12.472656-5.5625-12.472656-12.476562 0-6.914063 5.5625-12.476563 12.472656-12.476563zm0 0" fill="#212121"/><path d="m15.875 24.066406c4.75 0 8.601562-3.851562 8.601562-8.601562s-3.851562-8.597656-8.601562-8.597656c-4.746094 0-8.597656 3.847656-8.597656 8.597656s3.851562 8.601562 8.597656 8.601562zm0 0" fill="url(#h)"/><path d="m15.875 6.863281c-4.761719 0-8.597656 3.835938-8.597656 8.601563 0 .109375 0 .222656.003906.332031.175781-4.609375 3.941406-8.269531 8.59375-8.269531 4.65625 0 8.421875 3.660156 8.59375 8.269531.003906-.109375.007812-.222656.007812-.332031 0-4.765625-3.835937-8.601563-8.601562-8.601563zm0 0" fill-opacity=".235294"/><path d="m7.28125 15.796875c-.003906.109375-.003906.21875-.003906.328125 0 4.765625 3.835937 8.601562 8.597656 8.601562 4.765625 0 8.601562-3.835937 8.601562-8.601562 0-.109375-.003906-.21875-.007812-.328125-.171875 4.609375-3.9375 8.269531-8.59375 8.269531-4.652344 0-8.417969-3.660156-8.59375-8.269531zm0 0" fill="#fff" fill-opacity=".392157"/><path d="m253.975747-170.025732c75.992743 0 137.611858 61.619116 137.611858 137.611859s-61.619115 137.549365-137.611858 137.549365c-75.930249 0-137.549365-61.556622-137.549365-137.549365s61.619116-137.611859 137.549365-137.611859zm0 0" fill="none" stroke="#212121" stroke-linecap="round" stroke-width="3" transform="matrix(.062506 0 0 -.062506 0 13.438783)"/><path d="m14.554688 10.171875c-1.101563 0-1.984376.886719-1.984376 1.984375v1.324219c0 .691406.347657 1.296875.882813 1.652343-.535156.355469-.882813.964844-.882813 1.65625v1.984376c0 1.097656.882813 1.984374 1.984376 1.984374h2.644531c1.101562 0 1.984375-.886718 1.984375-1.984374v-1.984376c0-.691406-.351563-1.300781-.882813-1.65625.53125-.355468.882813-.960937.882813-1.652343v-1.324219c0-1.097656-.882813-1.984375-1.984375-1.984375zm.328124 1.324219h1.984376c.550781 0 .992187.441406.992187.992187v.992188c0 .550781-.441406.992187-.992187.992187h-1.984376c-.546874 0-.992187-.441406-.992187-.992187v-.992188c0-.550781.445313-.992187.992187-.992187zm0 4.300781h1.984376c.550781 0 .992187.441406.992187.992187v1.652344c0 .550782-.441406.992188-.992187.992188h-1.984376c-.546874 0-.992187-.441406-.992187-.992188v-1.652344c0-.550781.445313-.992187.992187-.992187zm0 0" fill="url(#i)"/><path d="m14.554688 10.171875c-1.101563 0-1.984376.886719-1.984376 1.984375v.332031c0-1.097656.882813-1.984375 1.984376-1.984375h2.644531c1.101562 0 1.984375.886719 1.984375 1.984375v-.332031c0-1.097656-.882813-1.984375-1.984375-1.984375zm-.664063 3.308594v.332031c0 .546875.445313.992188.992187.992188h1.984376c.550781 0 .992187-.445313.992187-.992188v-.332031c0 .550781-.441406.992187-.992187.992187h-1.984376c-.546874 0-.992187-.441406-.992187-.992187zm-.652344 1.820312c-.410156.363281-.667969.894531-.667969 1.488281v.328126c0-.691407.347657-1.296876.882813-1.652344-.074219-.050782-.148437-.105469-.214844-.164063zm5.277344 0c-.070313.058594-.140625.113281-.214844.164063.53125.355468.882813.960937.882813 1.652344v-.328126c0-.59375-.257813-1.125-.667969-1.488281zm-4.625 3.140625v.332032c0 .550781.445313.992187.992187.992187h1.984376c.550781 0 .992187-.441406.992187-.992187v-.332032c0 .550782-.441406.992188-.992187.992188h-1.984376c-.546874 0-.992187-.441406-.992187-.992188zm0 0" fill="#fff" fill-opacity=".313726"/><path d="m14.882812 11.496094c-.546874 0-.992187.441406-.992187.992187v.496094c0-.550781.445313-.992187.992187-.992187h1.984376c.550781 0 .992187.441406.992187.992187v-.496094c0-.550781-.441406-.992187-.992187-.992187zm-2.3125 1.984375v.496093c0 .550782.21875 1.046876.582032 1.40625.089844-.09375.191406-.175781.300781-.25-.535156-.355468-.882813-.960937-.882813-1.652343zm6.613282 0c0 .691406-.351563 1.296875-.882813 1.652343.109375.074219.210938.15625.300781.25.359376-.359374.582032-.855468.582032-1.40625zm-4.300782 2.316406c-.546874 0-.992187.441406-.992187.992187v.496094c0-.550781.445313-.992187.992187-.992187h1.984376c.550781 0 .992187.441406.992187.992187v-.496094c0-.550781-.441406-.992187-.992187-.992187zm-2.3125 2.976563v.496093c0 1.097657.882813 1.984375 1.984376 1.984375h2.644531c1.101562 0 1.984375-.886718 1.984375-1.984375v-.496093c0 1.097656-.882813 1.984374-1.984375 1.984374h-2.644531c-1.101563 0-1.984376-.886718-1.984376-1.984374zm0 0" fill-opacity=".235294"/><path d="m880.073484 615.059407c-66.607816 0-119.988548 53.61693-119.988548 119.988548v80.071098c0 41.807034 21.021615 78.417713 53.380732 99.911724-32.359117 21.494012-53.380732 58.340889-53.380732 100.147922v119.988548c0 66.371618 53.380732 119.988548 119.988548 119.988548h159.905998c66.607816 0 119.988548-53.61693 119.988548-119.988548v-119.988548c0-41.807033-21.257814-78.65391-53.380732-100.147922 32.122918-21.494011 53.380732-58.10469 53.380732-99.911724v-80.071098c0-66.371618-53.380732-119.988548-119.988548-119.988548zm19.840626 80.071098h119.988548c33.303908 0 59.994274 26.690366 59.994274 59.994274v59.994274c0 33.303908-26.690366 59.994274-59.994274 59.994274h-119.988548c-33.06771 0-59.994274-26.690366-59.994274-59.994274v-59.994274c0-33.303908 26.926564-59.994274 59.994274-59.994274zm0 260.05392h119.988548c33.303908 0 59.994274 26.690366 59.994274 59.994274v99.911724c0 33.303908-26.690366 59.994274-59.994274 59.994274h-119.988548c-33.06771 0-59.994274-26.690366-59.994274-59.994274v-99.911724c0-33.303908 26.926564-59.994274 59.994274-59.994274zm0 0" fill="none" stroke="#212121" stroke-linecap="round" stroke-linejoin="round" stroke-width="11.338583" transform="scale(.016538)"/></svg>

<?xml version="1.0" encoding="UTF-8"?>
<svg xmlns="http://www.w3.org/2000/svg" xmlns:xlink="http://www.w3.org/1999/xlink" width="32px" height="32px" viewBox="0 0 32 32" version="1.1">
<defs>
<radialGradient id="radial0" gradientUnits="userSpaceOnUse" cx="450.908936" cy="189.579361" fx="450.908936" fy="189.579361" r="21.166656" gradientTransform="matrix(0.00000017417,-0.0781325,-0.140638,-0.000000101539,44.523152,63.595329)">
<stop offset="0" style="stop-color:rgb(0%,0%,0%);stop-opacity:0.313726;"/>
<stop offset="0.222222" style="stop-color:rgb(0%,0%,0%);stop-opacity:0.27451;"/>
<stop offset="1" style="stop-color:rgb(0%,0%,0%);stop-opacity:0;"/>
</radialGradient>
<radialGradient id="radial1" gradientUnits="userSpaceOnUse" cx="450.908936" cy="189.579361" fx="450.908936" fy="189.579361" r="21.166656" gradientTransform="matrix(-0.00000017417,0.0781325,0.140638,0.000000101539,-12.770119,-7.527482)">
<stop offset="0" style="stop-color:rgb(0%,0%,0%);stop-opacity:0.313726;"/>
<stop offset="0.222222" style="stop-color:rgb(0%,0%,0%);stop-opacity:0.27451;"/>
<stop offset="1" style="stop-color:rgb(0%,0%,0%);stop-opacity:0;"/>
</radialGradient>
<radialGradient id="radial2" gradientUnits="userSpaceOnUse" cx="450.908936" cy="189.579361" fx="450.908936" fy="189.579361" r="21.166656" gradientTransform="matrix(-0.00000017417,-0.0781325,0.140638,-0.000000101539,-12.770119,63.595329)">
<stop offset="0" style="stop-color:rgb(0%,0%,0%);stop-opacity:0.313726;"/>
<stop offset="0.222222" style="stop-color:rgb(0%,0%,0%);stop-opacity:0.27451;"/>
<stop offset="1" style="stop-color:rgb(0%,0%,0%);stop-opacity:0;"/>
</radialGradient>
<radialGradient id="radial3" gradientUnits="userSpaceOnUse" cx="450.908936" cy="189.579361" fx="450.908936" fy="189.579361" r="21.166656" gradientTransform="matrix(0.00000017417,0.0781325,-0.140638,0.000000101539,44.52315,-7.527483)">
<stop offset="0" style="stop-color:rgb(0%,0%,0%);stop-opacity:0.313726;"/>
<stop offset="0.222222" style="stop-color:rgb(0%,0%,0%);stop-opacity:0.27451;"/>
<stop offset="1" style="stop-color:rgb(0%,0%,0%);stop-opacity:0;"/>
</radialGradient>
<linearGradient id="linear0" gradientUnits="userSpaceOnUse" x1="255.323059" y1="233.5" x2="255.323044" y2="254.666656" gradientTransform="matrix(0.0133601,0,0,0.062506,12.465386,13.438784)">
<stop offset="0" style="stop-color:rgb(0%,0%,0%);stop-opacity:0.27451;"/>
<stop offset="1" style="stop-color:rgb(0%,0%,0%);stop-opacity:0;"/>
</linearGradient>
<linearGradient id="linear1" gradientUnits="userSpaceOnUse" x1="254" y1="-168.666672" x2="254" y2="233.5" gradientTransform="matrix(0.062506,0,0,0.062506,0,13.438783)">
<stop offset="0" style="stop-color:rgb(56.470591%,64.313728%,68.235296%);stop-opacity:1;"/>
<stop offset="1" style="stop-color:rgb(32.941177%,43.137255%,47.843137%);stop-opacity:1;"/>
</linearGradient>
<linearGradient id="linear2" gradientUnits="userSpaceOnUse" x1="254" y1="-170" x2="254" y2="105.166656" gradientTransform="matrix(0.062506,0,0,-0.062506,0,13.438783)">
<stop offset="0" style="stop-color:rgb(74.117649%,74.117649%,74.117649%);stop-opacity:1;"/>
<stop offset="1" style="stop-color:rgb(87.843138%,87.843138%,87.843138%);stop-opacity:1;"/>
</linearGradient>
<linearGradient id="linear3" gradientUnits="userSpaceOnUse" x1="960" y1="415.118103" x2="960" y2="1455.118164" gradientTransform="matrix(0.016538,0,0,0.016538,0,0)">
<stop offset="0" style="stop-color:rgb(38.039216%,38.039216%,38.039216%);stop-opacity:1;"/>
<stop offset="1" style="stop-color:rgb(25.882354%,25.882354%,25.882354%);stop-opacity:1;"/>
</linearGradient>
</defs>
<g id="surface1">
<path style=" stroke:none;fill-rule:nonzero;fill:url(#radial0);" d="M 18.191406 28.035156 L 20.839844 28.035156 L 20.839844 26.710938 L 18.191406 26.710938 Z M 18.191406 28.035156 "/>
<path style=" stroke:none;fill-rule:nonzero;fill:url(#radial1);" d="M 13.5625 28.035156 L 10.914062 28.035156 L 10.914062 29.355469 L 13.5625 29.355469 Z M 13.5625 28.035156 "/>
<path style=" stroke:none;fill-rule:nonzero;fill:url(#radial2);" d="M 13.5625 28.035156 L 10.914062 28.035156 L 10.914062 26.710938 L 13.5625 26.710938 Z M 13.5625 28.035156 "/>
<path style=" stroke:none;fill-rule:nonzero;fill:url(#radial3);" d="M 18.191406 28.035156 L 20.839844 28.035156 L 20.839844 29.355469 L 18.191406 29.355469 Z M 18.191406 28.035156 "/>
<path style=" stroke:none;fill-rule:nonzero;fill:url(#linear0);" d="M 13.5625 27.703125 L 18.191406 27.703125 L 18.191406 29.355469 L 13.5625 29.355469 Z M 13.5625 27.703125 "/>
<path style=" stroke:none;fill-rule:nonzero;fill:url(#linear1);" d="M 15.875 2.894531 C 22.816406 2.894531 28.445312 8.523438 28.445312 15.464844 C 28.445312 22.40625 22.816406 28.035156 15.875 28.035156 C 8.933594 28.035156 3.308594 22.40625 3.308594 15.464844 C 3.308594 8.523438 8.933594 2.894531 15.875 2.894531 Z M 15.875 2.894531 "/>
<path style=" stroke:none;fill-rule:nonzero;fill:rgb(0%,0%,0%);fill-opacity:0.196078;" d="M 15.875 28.035156 C 8.914062 28.035156 3.308594 22.429688 3.308594 15.464844 C 3.308594 15.425781 3.308594 15.382812 3.308594 15.34375 C 3.375 22.246094 8.953125 27.789062 15.875 27.789062 C 22.796875 27.789062 28.378906 22.246094 28.445312 15.34375 C 28.445312 15.382812 28.445312 15.425781 28.445312 15.464844 C 28.445312 22.429688 22.839844 28.035156 15.875 28.035156 Z M 15.875 28.035156 "/>
<path style=" stroke:none;fill-rule:nonzero;fill:rgb(100%,100%,100%);fill-opacity:0.392157;" d="M 15.875 2.894531 C 8.914062 2.894531 3.308594 8.5 3.308594 15.464844 C 3.308594 15.507812 3.308594 15.546875 3.308594 15.589844 C 3.375 8.683594 8.953125 3.140625 15.875 3.140625 C 22.796875 3.140625 28.378906 8.683594 28.445312 15.589844 C 28.445312 15.546875 28.445312 15.507812 28.445312 15.464844 C 28.445312 8.5 22.839844 2.894531 15.875 2.894531 Z M 15.875 2.894531 "/>
<path style=" stroke:none;fill-rule:nonzero;fill:rgb(12.941177%,12.941177%,12.941177%);fill-opacity:1;" d="M 15.875 2.800781 C 8.863281 2.800781 3.214844 8.453125 3.214844 15.464844 C 3.214844 22.476562 8.863281 28.128906 15.875 28.128906 C 22.890625 28.128906 28.539062 22.476562 28.539062 15.464844 C 28.539062 8.453125 22.890625 2.800781 15.875 2.800781 Z M 15.875 2.988281 C 22.789062 2.988281 28.351562 8.550781 28.351562 15.464844 C 28.351562 22.378906 22.789062 27.941406 15.875 27.941406 C 8.964844 27.941406 3.402344 22.378906 3.402344 15.464844 C 3.402344 8.550781 8.964844 2.988281 15.875 2.988281 Z M 15.875 2.988281 "/>
<path style=" stroke:none;fill-rule:nonzero;fill:url(#linear2);" d="M 15.875 24.066406 C 20.625 24.066406 24.476562 20.214844 24.476562 15.464844 C 24.476562 10.714844 20.625 6.867188 15.875 6.867188 C 11.128906 6.867188 7.277344 10.714844 7.277344 15.464844 C 7.277344 20.214844 11.128906 24.066406 15.875 24.066406 Z M 15.875 24.066406 "/>
<path style=" stroke:none;fill-rule:nonzero;fill:rgb(0%,0%,0%);fill-opacity:0.235294;" d="M 15.875 6.863281 C 11.113281 6.863281 7.277344 10.699219 7.277344 15.464844 C 7.277344 15.574219 7.277344 15.6875 7.28125 15.796875 C 7.457031 11.1875 11.222656 7.527344 15.875 7.527344 C 20.53125 7.527344 24.296875 11.1875 24.46875 15.796875 C 24.472656 15.6875 24.476562 15.574219 24.476562 15.464844 C 24.476562 10.699219 20.640625 6.863281 15.875 6.863281 Z M 15.875 6.863281 "/>
<path style=" stroke:none;fill-rule:nonzero;fill:rgb(100%,100%,100%);fill-opacity:0.392157;" d="M 7.28125 15.796875 C 7.277344 15.90625 7.277344 16.015625 7.277344 16.125 C 7.277344 20.890625 11.113281 24.726562 15.875 24.726562 C 20.640625 24.726562 24.476562 20.890625 24.476562 16.125 C 24.476562 16.015625 24.472656 15.90625 24.46875 15.796875 C 24.296875 20.40625 20.53125 24.066406 15.875 24.066406 C 11.222656 24.066406 7.457031 20.40625 7.28125 15.796875 Z M 7.28125 15.796875 "/>
<path style="fill:none;stroke-width:3;stroke-linecap:round;stroke-linejoin:miter;stroke:rgb(12.941177%,12.941177%,12.941177%);stroke-opacity:1;stroke-miterlimit:4;" d="M 253.975747 -170.025732 C 329.96849 -170.025732 391.587605 -108.406616 391.587605 -32.413873 C 391.587605 43.57887 329.96849 105.135492 253.975747 105.135492 C 178.045498 105.135492 116.426382 43.57887 116.426382 -32.413873 C 116.426382 -108.406616 178.045498 -170.025732 253.975747 -170.025732 Z M 253.975747 -170.025732 " transform="matrix(0.062506,0,0,-0.062506,0,13.438783)"/>
<path style=" stroke:none;fill-rule:nonzero;fill:url(#linear3);" d="M 14.554688 10.171875 C 13.453125 10.171875 12.570312 11.058594 12.570312 12.15625 L 12.570312 13.480469 C 12.570312 14.171875 12.917969 14.777344 13.453125 15.132812 C 12.917969 15.488281 12.570312 16.097656 12.570312 16.789062 L 12.570312 18.773438 C 12.570312 19.871094 13.453125 20.757812 14.554688 20.757812 L 17.199219 20.757812 C 18.300781 20.757812 19.183594 19.871094 19.183594 18.773438 L 19.183594 16.789062 C 19.183594 16.097656 18.832031 15.488281 18.300781 15.132812 C 18.832031 14.777344 19.183594 14.171875 19.183594 13.480469 L 19.183594 12.15625 C 19.183594 11.058594 18.300781 10.171875 17.199219 10.171875 Z M 14.882812 11.496094 L 16.867188 11.496094 C 17.417969 11.496094 17.859375 11.9375 17.859375 12.488281 L 17.859375 13.480469 C 17.859375 14.03125 17.417969 14.472656 16.867188 14.472656 L 14.882812 14.472656 C 14.335938 14.472656 13.890625 14.03125 13.890625 13.480469 L 13.890625 12.488281 C 13.890625 11.9375 14.335938 11.496094 14.882812 11.496094 Z M 14.882812 15.796875 L 16.867188 15.796875 C 17.417969 15.796875 17.859375 16.238281 17.859375 16.789062 L 17.859375 18.441406 C 17.859375 18.992188 17.417969 19.433594 16.867188 19.433594 L 14.882812 19.433594 C 14.335938 19.433594 13.890625 18.992188 13.890625 18.441406 L 13.890625 16.789062 C 13.890625 16.238281 14.335938 15.796875 14.882812 15.796875 Z M 14.882812 15.796875 "/>
<path style=" stroke:none;fill-rule:nonzero;fill:rgb(100%,100%,100%);fill-opacity:0.313726;" d="M 14.554688 10.171875 C 13.453125 10.171875 12.570312 11.058594 12.570312 12.15625 L 12.570312 12.488281 C 12.570312 11.390625 13.453125 10.503906 14.554688 10.503906 L 17.199219 10.503906 C 18.300781 10.503906 19.183594 11.390625 19.183594 12.488281 L 19.183594 12.15625 C 19.183594 11.058594 18.300781 10.171875 17.199219 10.171875 Z M 13.890625 13.480469 L 13.890625 13.8125 C 13.890625 14.359375 14.335938 14.804688 14.882812 14.804688 L 16.867188 14.804688 C 17.417969 14.804688 17.859375 14.359375 17.859375 13.8125 L 17.859375 13.480469 C 17.859375 14.03125 17.417969 14.472656 16.867188 14.472656 L 14.882812 14.472656 C 14.335938 14.472656 13.890625 14.03125 13.890625 13.480469 Z M 13.238281 15.300781 C 12.828125 15.664062 12.570312 16.195312 12.570312 16.789062 L 12.570312 17.117188 C 12.570312 16.425781 12.917969 15.820312 13.453125 15.464844 C 13.378906 15.414062 13.304688 15.359375 13.238281 15.300781 Z M 18.515625 15.300781 C 18.445312 15.359375 18.375 15.414062 18.300781 15.464844 C 18.832031 15.820312 19.183594 16.425781 19.183594 17.117188 L 19.183594 16.789062 C 19.183594 16.195312 18.925781 15.664062 18.515625 15.300781 Z M 13.890625 18.441406 L 13.890625 18.773438 C 13.890625 19.324219 14.335938 19.765625 14.882812 19.765625 L 16.867188 19.765625 C 17.417969 19.765625 17.859375 19.324219 17.859375 18.773438 L 17.859375 18.441406 C 17.859375 18.992188 17.417969 19.433594 16.867188 19.433594 L 14.882812 19.433594 C 14.335938 19.433594 13.890625 18.992188 13.890625 18.441406 Z M 13.890625 18.441406 "/>
<path style=" stroke:none;fill-rule:nonzero;fill:rgb(0%,0%,0%);fill-opacity:0.235294;" d="M 14.882812 11.496094 C 14.335938 11.496094 13.890625 11.9375 13.890625 12.488281 L 13.890625 12.984375 C 13.890625 12.433594 14.335938 11.992188 14.882812 11.992188 L 16.867188 11.992188 C 17.417969 11.992188 17.859375 12.433594 17.859375 12.984375 L 17.859375 12.488281 C 17.859375 11.9375 17.417969 11.496094 16.867188 11.496094 Z M 12.570312 13.480469 L 12.570312 13.976562 C 12.570312 14.527344 12.789062 15.023438 13.152344 15.382812 C 13.242188 15.289062 13.34375 15.207031 13.453125 15.132812 C 12.917969 14.777344 12.570312 14.171875 12.570312 13.480469 Z M 19.183594 13.480469 C 19.183594 14.171875 18.832031 14.777344 18.300781 15.132812 C 18.410156 15.207031 18.511719 15.289062 18.601562 15.382812 C 18.960938 15.023438 19.183594 14.527344 19.183594 13.976562 Z M 14.882812 15.796875 C 14.335938 15.796875 13.890625 16.238281 13.890625 16.789062 L 13.890625 17.285156 C 13.890625 16.734375 14.335938 16.292969 14.882812 16.292969 L 16.867188 16.292969 C 17.417969 16.292969 17.859375 16.734375 17.859375 17.285156 L 17.859375 16.789062 C 17.859375 16.238281 17.417969 15.796875 16.867188 15.796875 Z M 12.570312 18.773438 L 12.570312 19.269531 C 12.570312 20.367188 13.453125 21.253906 14.554688 21.253906 L 17.199219 21.253906 C 18.300781 21.253906 19.183594 20.367188 19.183594 19.269531 L 19.183594 18.773438 C 19.183594 19.871094 18.300781 20.757812 17.199219 20.757812 L 14.554688 20.757812 C 13.453125 20.757812 12.570312 19.871094 12.570312 18.773438 Z M 12.570312 18.773438 "/>
<path style="fill:none;stroke-width:11.338583;stroke-linecap:round;stroke-linejoin:round;stroke:rgb(12.941177%,12.941177%,12.941177%);stroke-opacity:1;stroke-miterlimit:4;" d="M 880.073484 615.059407 C 813.465668 615.059407 760.084936 668.676337 760.084936 735.047955 L 760.084936 815.119053 C 760.084936 856.926087 781.106551 893.536766 813.465668 915.030777 C 781.106551 936.524789 760.084936 973.371666 760.084936 1015.178699 L 760.084936 1135.167247 C 760.084936 1201.538865 813.465668 1255.155795 880.073484 1255.155795 L 1039.979482 1255.155795 C 1106.587298 1255.155795 1159.96803 1201.538865 1159.96803 1135.167247 L 1159.96803 1015.178699 C 1159.96803 973.371666 1138.710216 936.524789 1106.587298 915.030777 C 1138.710216 893.536766 1159.96803 856.926087 1159.96803 815.119053 L 1159.96803 735.047955 C 1159.96803 668.676337 1106.587298 615.059407 1039.979482 615.059407 Z M 899.91411 695.130505 L 1019.902658 695.130505 C 1053.206566 695.130505 1079.896932 721.820871 1079.896932 755.124779 L 1079.896932 815.119053 C 1079.896932 848.422961 1053.206566 875.113327 1019.902658 875.113327 L 899.91411 875.113327 C 866.8464 875.113327 839.919836 848.422961 839.919836 815.119053 L 839.919836 755.124779 C 839.919836 721.820871 866.8464 695.130505 899.91411 695.130505 Z M 899.91411 955.184425 L 1019.902658 955.184425 C 1053.206566 955.184425 1079.896932 981.874791 1079.896932 1015.178699 L 1079.896932 1115.090423 C 1079.896932 1148.394331 1053.206566 1175.084697 1019.902658 1175.084697 L 899.91411 1175.084697 C 866.8464 1175.084697 839.919836 1148.394331 839.919836 1115.090423 L 839.919836 1015.178699 C 839.919836 981.874791 866.8464 955.184425 899.91411 955.184425 Z M 899.91411 955.184425 " transform="matrix(0.016538,0,0,0.016538,0,0)"/>
</g>
</svg>
